htdocs/bitrix/js/ui/icons/service/images/ui-service-imessage.svg

<svg xmlns="http://www.w3.org/2000/svg" width="42" height="42" viewBox="0 0 42 42">
    <path fill="#FFF" fill-rule="nonzero" d="M21.5,11.6000004 C15.7010521,11.6000004 11,15.8230008 11,21.0323787 C11,23.6793343 12.21533,26.0701627 14.1703101,27.7831149 C14.7259188,31.2051143 12.0409209,31.8375078 12.0409209,31.8375078 C12.0409209,31.8375078 11.7056292,32.3201298 12.5387348,32.4983853 C15.8918568,33.1859092 18.6032928,30.1594715 18.6032928,30.1594715 L18.606367,30.0988279 C19.5259598,30.3352001 20.4959694,30.4645272 21.5,30.4645272 C27.2991529,30.4645272 32,26.2415269 32,21.032149 C32,15.8227711 27.2991529,11.6000004 21.5,11.6000004 Z"/>
</svg>

<svg xmlns="http://www.w3.org/2000/svg" width="42" height="42" viewBox="0 0 42 42"><path fill="#FFF" d="M21.5 11.6c-5.799 0-10.5 4.223-10.5 9.432 0 2.647 1.215 5.038 3.17 6.751.556 3.422-2.13 4.055-2.13 4.055s-.334.482.499.66c3.353.688 6.064-2.339 6.064-2.339l.003-.06c.92.236 1.89.366 2.894.366 5.8 0 10.5-4.223 10.5-9.433S27.3 11.6 21.5 11.6z"/></svg>
